; HEADER_BLOCK_START
; generated by AnycubicSlicerNext 1.3.4.0 on 2025-05-03 at 11:42:12
; total layer number: 30
; filament_density: 1.24
; filament_diameter: 1.75
; max_z_height: 6.04
; exclude_object: 0
; model_instances: 1
; HEADER_BLOCK_END

; THUMBNAIL_BLOCK_START
; THUMBNAIL_BLOCK_END

; external perimeters extrusion width = 0.42mm
; perimeters extrusion width = 0.45mm
; infill extrusion width = 0.45mm
; solid infill extrusion width = 0.42mm
; top infill extrusion width = 0.42mm
; first layer extrusion width = 0.50mm

; EXECUTABLE_BLOCK_START
M201 X2000 Y2000 Z800 E2000
M203 X300 Y300 Z8 E100
M204 P2000 R2000 T2000
M205 X10.00 Y10.00 Z2.00 E5.00 ; sets the jerk limits, mm/sec
;TYPE:Custom
G90 ; use absolute coordinates
M83 ; extruder relative mode
M104 S220 ; set extruder temp
M140 S60 ; set bed temp
M190 S60 ; wait for bed temp
M109 S220 ; wait for extruder temp
G28                                        ; move X/Y/Z to min endstops
G1 Z0.28                                   ; lift nozzle a bit 
G92 E0 
G1 Y3 F1800                                    ; zero the extruded length 
G1 X60  E25 F500                       ; Extrude 25mm of filament in a 5cm line. 
G92 E0                                     ; zero the extruded length again 
G1 E-2 F500                                ; Retract a little 
G1 X70 F4000                              ; Quickly wipe away from the filament line
M117
G90
G21
M83 ; use relative distances for extrusion
; filament start gcode
M106 S0
;LAYER_CHANGE
;Z:0.24
;HEIGHT:0.24
; BEFORE_LAYER_CHANGE 0 @ 0.24mm
G92 E0
G1 E-2.5 F6000
; AFTER_LAYER_CHANGE 0 @ 0.24mm
M204 P500
; printing object "Maze.stl" id:140718846505280 copy 0
M204 T500
G1 X152.173 Y96.867 F18000
G1 Z.24
G1 E2.5 F6000
;TYPE:Outer wall
;WIDTH:0.5
;MM3_PER_MM:0.107639
G1 F3000
G1 X153.242 Y96.466 E.05007
G1 X153.712 Y99.016 E.11373
G1 X152.717 Y99.389 E.04658
G1 X153.176 Y101.4 E.09046
G1 X153.792 Y106.316 E.21732
G1 X153.915 Y111.27 E.21731
G1 X153.545 Y116.212 E.21733
G1 X152.685 Y121.092 E.21731
G1 X151.343 Y125.861 E.21731
G1 X149.533 Y130.474 E.21732
G1 X147.274 Y134.884 E.21731
G1 X144.586 Y139.046 E.21726
G1 X141.497 Y142.921 E.21731
G1 X138.038 Y146.468 E.21728
G1 X134.244 Y149.654 E.21728
G1 X130.151 Y152.444 E.21726
G1 X125.8 Y154.815 E.21728
G1 X121.235 Y156.739 E.21727
G1 X116.502 Y158.2 E.21723
G1 X111.646 Y159.181 E.21728
G1 X106.717 Y159.675 E.21724
G1 X101.764 Y159.675 E.21724
G1 X97.96 Y159.294 E.16764
G1 X97.271 Y159.249 E.03031
G1 X96.842 Y159.183 E.01904
G1 X90.903 Y157.982 E.26571
G1 X84.75 Y155.893 E.28497
G1 X78.922 Y153.019 E.28498
G1 X73.52 Y149.41 E.28495
G1 X68.635 Y145.125 E.28498
G1 X64.35 Y140.24 E.28498
G1 X60.741 Y134.837 E.28495
G1 X57.866 Y129.009 E.28498
G1 X55.778 Y122.857 E.28495
G1 X54.51 Y116.483 E.28498
G1 X54.085 Y110 E.28495
G1 X54.51 Y103.517 E.28495
G1 X55.778 Y97.143 E.28498
G1 X57.866 Y90.991 E.28495
G1 X60.741 Y85.163 E.28498
G1 X64.35 Y79.76 E.28495
G1 X68.635 Y74.875 E.28498
G1 X73.52 Y70.59 E.28498
G1 X78.922 Y66.981 E.28495
G1 X84.75 Y64.107 E.28498
G1 X90.903 Y62.019 E.28495
G1 X94.162 Y61.37 E.14573
G1 X94.4 Y61.31 E.01078
G1 X97.275 Y60.751 E.12846
G1 X98.754 Y60.654 E.065
G1 X99.293 Y60.573 E.02389
G1 X102.235 Y60.426 E.12919
G1 X103.76 Y60.326 E.067
G1 X103.965 Y60.339 E.00903
G1 X104.24 Y60.325 E.0121
G1 X104.722 Y60.349 E.02116
G1 X109.188 Y60.573 E.1961
G1 X114.086 Y61.311 E.21723
G1 X118.887 Y62.534 E.21726
G1 X123.542 Y64.229 E.21728
G1 X128.005 Y66.379 E.21725
G1 X132.232 Y68.962 E.21726
G1 X136.18 Y71.954 E.21726
G1 X139.812 Y75.325 E.21729
G1 X143.09 Y79.04 E.21729
G1 X145.981 Y83.063 E.21729
G1 X148.458 Y87.354 E.21728
G1 X150.496 Y91.872 E.21734
G1 X152.154 Y96.81 E.22846
G1 E-2.25 F6000
;WIPE_START
G1 F3000
G1 X153.242 Y96.466 E-.14265
G1 X153.398 Y97.31 E-.10735
;WIPE_END
G1 X141.869 Y77.86 F18000
G1 E2.5 F6000
;TYPE:Bottom surface
;WIDTH:0.501552
;MM3_PER_MM:0.108012
G1 F3000
G1 X139.559 Y75.55 E.14376
G1 X135.964 Y72.212 E.2159
G1 X134.399 Y71.026 E.08639
G1 X143.348 Y79.975 E.55692
G1 X144.972 Y82.236 E.12253
G1 X131.873 Y69.136 E.81527
G1 X130.237 Y68.137 E.08439
G1 X146.179 Y84.079 E.9922
G1 X147.048 Y85.584 E.07649
G1 X128.6 Y67.137 E1.14812
G1 X127.844 Y66.675 E.03901
G1 X127.183 Y66.356 E.03226
G1 X147.917 Y87.09 E1.29038
G1 X148.158 Y87.508 E.02125
G1 X148.536 Y88.345 E.04042
G1 X125.955 Y65.765 E1.40534
G1 X124.727 Y65.173 E.05999
G1 X149.059 Y89.505 E1.51432
G1 X149.582 Y90.664 E.05598
G1 X123.499 Y64.582 E1.6233
G1 X122.482 Y64.201 E.04779
G1 X150.105 Y91.824 E1.71915
G1 X150.182 Y91.995 E.00826
G1 X150.456 Y92.812 E.03793
G1 X121.481 Y63.837 E1.80332
G1 X120.48 Y63.472 E.04687
G1 X150.778 Y93.77 E1.88564
G1 X151.1 Y94.728 E.04449
G1 X119.48 Y63.108 E1.96796
G1 X118.787 Y62.856 E.03242
G1 X118.524 Y62.789 E.01196
G1 X151.743 Y96.007 E2.06742
G1 E-2.25 F6000
;WIPE_START
G1 F3000
G1 X150.328 Y94.593 E-.25
;WIPE_END
G1 X152.59 Y96.854 F18000
G1 E2.5 F6000
G1 F3000
G1 X153.058 Y97.323 E.02914
G1 X153.201 Y98.103 E.0349
G1 X152.284 Y97.185 E.05713
G1 X151.965 Y97.304 E.01496
G1 X151.744 Y96.645 E.0306
G1 X117.67 Y62.571 E2.12065
G1 X116.816 Y62.354 E.03878
G1 X153.281 Y98.818 E2.26944
G1 X152.818 Y98.992 E.02176
G1 X115.962 Y62.136 E2.29377
G1 X115.108 Y61.918 E.03878
G1 X152.355 Y99.165 E2.31811
G1 X152.324 Y99.177 E.00146
G1 X152.499 Y99.946 E.03474
G1 X114.254 Y61.701 E2.38027
G1 X114.019 Y61.641 E.01065
G1 X113.476 Y61.559 E.02419
G1 X152.688 Y100.771 E2.44041
G1 X152.86 Y101.58 E.03638
G1 X112.726 Y61.446 E2.49776
G1 X111.977 Y61.333 E.03335
G1 X152.951 Y102.307 E2.55008
G1 X153.042 Y103.035 E.03227
G1 X111.227 Y61.22 E2.60239
G1 X110.478 Y61.107 E.03335
G1 X153.133 Y103.762 E2.6547
G1 X153.224 Y104.49 E.03227
G1 X109.729 Y60.994 E2.70702
G1 X109.155 Y60.908 E.02555
G1 X108.998 Y60.9 E.00691
G1 X153.315 Y105.218 E2.75817
G1 X153.407 Y105.945 E.03227
G1 X108.328 Y60.867 E2.80554
G1 X107.658 Y60.833 E.02952
G1 X153.464 Y106.639 E2.85079
G1 X153.48 Y107.291 E.02873
G1 X106.988 Y60.8 E2.89349
G1 X106.318 Y60.766 E.02952
G1 X153.496 Y107.944 E2.9362
G1 X153.512 Y108.597 E.02873
G1 X105.648 Y60.733 E2.97891
G1 X104.978 Y60.699 E.02952
G1 X153.528 Y109.25 E3.02161
G1 X153.545 Y109.902 E.02873
G1 X104.308 Y60.666 E3.06432
G1 X103.674 Y60.668 E.02789
G1 X153.561 Y110.555 E3.10477
G1 X153.577 Y111.208 E.02873
G1 X103.077 Y60.708 E3.14295
G1 X102.48 Y60.747 E.02634
G1 X153.538 Y111.805 E3.17767
G1 X153.493 Y112.397 E.02613
G1 X101.877 Y60.78 E3.21243
G1 X101.271 Y60.811 E.02671
G1 X153.449 Y112.989 E3.24739
G1 X153.405 Y113.581 E.02613
G1 X100.665 Y60.841 E3.28235
G1 X100.058 Y60.871 E.02671
G1 X153.36 Y114.173 E3.31731
G1 X153.316 Y114.765 E.02613
G1 X99.452 Y60.902 E3.35227
G1 X98.888 Y60.974 E.02503
G1 X153.271 Y115.357 E3.38462
G1 X153.227 Y115.949 E.02613
G1 X98.299 Y61.021 E3.41854
G1 X97.701 Y61.06 E.02634
G1 X153.151 Y116.509 E3.45096
G1 X153.055 Y117.05 E.02418
G1 X97.127 Y61.122 E3.48077
G1 X96.594 Y61.226 E.02389
G1 X152.96 Y117.592 E3.508
G1 X152.865 Y118.133 E.02418
G1 X96.061 Y61.329 E3.53524
G1 X95.529 Y61.433 E.02389
G1 X152.769 Y118.674 E3.56247
G1 X152.674 Y119.215 E.02418
G1 X94.996 Y61.537 E3.58971
G1 X94.463 Y61.641 E.02387
G1 X152.579 Y119.756 E3.61691
G1 X152.484 Y120.297 E.02418
G1 X93.943 Y61.757 E3.64336
G1 X93.412 Y61.862 E.02382
G1 X152.388 Y120.839 E3.67047
G1 X152.263 Y121.35 E.02317
G1 X92.881 Y61.968 E3.69572
G1 X92.35 Y62.074 E.02382
G1 X152.123 Y121.847 E3.72006
G1 X151.984 Y122.343 E.02271
G1 X91.819 Y62.179 E3.7444
G1 X91.289 Y62.285 E.02382
G1 X151.844 Y122.84 E3.76874
G1 X151.704 Y123.337 E.02271
G1 X90.782 Y62.415 E3.79157
G1 X90.307 Y62.576 E.02208
G1 X151.564 Y123.833 E3.81244
G1 X151.424 Y124.33 E.02271
G1 X89.832 Y62.737 E3.83332
G1 X89.357 Y62.899 E.02208
G1 X151.285 Y124.827 E3.85419
G1 X151.145 Y125.324 E.02271
G1 X88.881 Y63.06 E3.87507
G1 X88.406 Y63.221 E.02208
G1 X151 Y125.815 E3.89561
G1 X150.821 Y126.272 E.02161
G1 X87.931 Y63.382 E3.91402
G1 X87.456 Y63.544 E.02208
G1 X150.641 Y126.729 E3.93243
G1 X150.462 Y127.186 E.02161
G1 X86.981 Y63.705 E3.95084
G1 X86.505 Y63.866 E.02208
G1 X150.282 Y127.643 E3.96925
G1 X150.103 Y128.1 E.02161
G1 X86.03 Y64.028 E3.98767
G1 X85.555 Y64.189 E.02208
G1 X149.924 Y128.557 E4.00608
G1 X149.744 Y129.015 E.02161
G1 X85.08 Y64.35 E4.02449
G1 X84.879 Y64.418 E.00933
G1 X84.633 Y64.54 E.01208
G1 X149.565 Y129.472 E4.04114
G1 X149.386 Y129.929 E.02161
G1 X84.207 Y64.75 E4.0565
G1 X83.781 Y64.96 E.02092
G1 X149.202 Y130.382 E4.07162
G1 X148.987 Y130.803 E.02081
G1 X83.354 Y65.17 E4.08473
G1 X82.928 Y65.381 E.02092
G1 X148.771 Y131.224 E4.09784
G1 X148.555 Y131.644 E.02081
G1 X82.502 Y65.591 E4.11095
G1 X82.076 Y65.801 E.02092
G1 X148.34 Y132.065 E4.12406
G1 X148.124 Y132.486 E.02081
G1 X81.649 Y66.011 E4.13717
G1 X81.223 Y66.221 E.02092
G1 X147.909 Y132.907 E4.15028
G1 X147.693 Y133.328 E.02081
G1 X80.797 Y66.432 E4.16339
G1 X80.371 Y66.642 E.02092
G1 X147.477 Y133.749 E4.1765
G1 X147.262 Y134.17 E.02081
G1 X79.944 Y66.852 E4.18961
G1 X79.518 Y67.062 E.02092
G1 X147.046 Y134.591 E4.20272
G1 X146.807 Y134.987 E.0204
G1 X79.091 Y67.273 E4.21435
G1 X78.71 Y67.527 E.02015
G1 X146.557 Y135.374 E4.22255
G1 X146.307 Y135.761 E.02026
G1 X78.329 Y67.782 E4.23075
G1 X77.947 Y68.037 E.02019
G1 X146.057 Y136.148 E4.23896
G1 X145.808 Y136.534 E.02026
G1 X77.565 Y68.292 E4.24716
G1 X77.184 Y68.547 E.02019
G1 X145.558 Y136.921 E4.25537
G1 X145.308 Y137.308 E.02026
G1 X76.802 Y68.802 E4.26357
G1 X76.421 Y69.057 E.02019
G1 X145.059 Y137.695 E4.27177
G1 X144.809 Y138.081 E.02026
G1 X76.039 Y69.312 E4.27998
G1 X75.658 Y69.567 E.02019
G1 X144.559 Y138.468 E4.28818
G1 X144.309 Y138.854 E.02025
G1 X75.276 Y69.822 E4.29636
G1 X74.895 Y70.076 E.02019
G1 X144.027 Y139.208 E4.30254
G1 X143.744 Y139.563 E.01993
G1 X74.513 Y70.331 E4.30871
G1 X74.131 Y70.586 E.02019
G1 X143.462 Y139.917 E4.31489
G1 X143.18 Y140.271 E.01993
G1 X73.75 Y70.841 E4.32107
G1 X73.408 Y71.136 E.01986
G1 X142.897 Y140.625 E4.32477
G1 X142.615 Y140.979 E.01993
G1 X73.069 Y71.433 E4.3283
G1 X72.73 Y71.731 E.01985
G1 X142.333 Y141.333 E4.33183
G1 X142.05 Y141.688 E.01993
G1 X72.391 Y72.028 E4.33536
G1 X72.052 Y72.325 E.01985
G1 X141.768 Y142.042 E4.33889
G1 X141.486 Y142.396 E.01993
G1 X71.713 Y72.623 E4.34243
G1 X71.374 Y72.92 E.01985
G1 X141.199 Y142.745 E4.34566
G1 X140.884 Y143.067 E.01981
G1 X71.035 Y73.218 E4.34721
G1 X70.696 Y73.515 E.01985
G1 X140.57 Y143.39 E4.34875
G1 X140.256 Y143.712 E.01981
G1 X70.357 Y73.812 E4.35029
G1 X70.018 Y74.11 E.01985
G1 X139.942 Y144.034 E4.35184
G1 X139.627 Y144.356 E.01981
G1 X69.678 Y74.407 E4.35338
G1 X69.339 Y74.705 E.01985
G1 X139.313 Y144.678 E4.35492
G1 X138.999 Y145.001 E.01981
G1 X69 Y75.002 E4.35647
G1 X68.873 Y75.114 E.00745
G1 X68.687 Y75.326 E.0124
G1 X138.685 Y145.323 E4.35639
G1 X138.37 Y145.645 E.01981
G1 X68.39 Y75.665 E4.35534
G1 X68.093 Y76.004 E.01985
G1 X138.056 Y145.967 E4.35429
G1 X137.735 Y146.283 E.01981
G1 X67.795 Y76.343 E4.35282
G1 X67.498 Y76.682 E.01985
G1 X137.389 Y146.573 E4.3498
G1 X137.043 Y146.864 E.01988
G1 X67.2 Y77.021 E4.34678
G1 X66.903 Y77.36 E.01985
G1 X136.697 Y147.154 E4.34376
G1 X136.351 Y147.445 E.01988
G1 X66.605 Y77.699 E4.34074
G1 X66.308 Y78.038 E.01985
G1 X136.005 Y147.735 E4.33772
G1 X135.659 Y148.026 E.01988
G1 X66.011 Y78.377 E4.33469
G1 X65.713 Y78.716 E.01985
G1 X135.313 Y148.316 E4.33167
G1 X134.968 Y148.607 E.01988
G1 X65.416 Y79.055 E4.32865
G1 X65.118 Y79.394 E.01985
G1 X134.622 Y148.897 E4.32563
G1 X134.276 Y149.188 E.01988
G1 X64.821 Y79.733 E4.32261
G1 X64.617 Y79.965 E.01359
G1 X64.537 Y80.086 E.00636
G1 X133.919 Y149.468 E4.31811
G1 X133.541 Y149.726 E.02016
G1 X64.282 Y80.467 E4.31042
G1 X64.027 Y80.849 E.02019
G1 X133.162 Y149.984 E4.30273
G1 X132.784 Y150.242 E.02016
G1 X63.772 Y81.23 E4.29504
G1 X63.517 Y81.612 E.02019
G1 X132.405 Y150.5 E4.28735
G1 X132.027 Y150.758 E.02016
G1 X63.262 Y81.993 E4.27967
G1 X63.008 Y82.375 E.02019
G1 X131.649 Y151.016 E4.27198
G1 X131.27 Y151.274 E.02016
G1 X62.753 Y82.757 E4.26429
G1 X62.498 Y83.138 E.02019
G1 X130.892 Y151.532 E4.2566
G1 X130.513 Y151.79 E.02016
G1 X62.243 Y83.52 E4.24891
G1 X61.988 Y83.901 E.02019
G1 X130.135 Y152.048 E4.24122
G1 X129.737 Y152.287 E.02042
G1 X61.733 Y84.283 E4.23233
G1 X61.478 Y84.664 E.02019
G1 X129.325 Y152.511 E4.22255
G1 X128.913 Y152.736 E.02065
G1 X61.223 Y85.046 E4.21278
G1 X60.98 Y85.439 E.02034
G1 X128.501 Y152.96 E4.2023
G1 X128.089 Y153.185 E.02065
G1 X60.769 Y85.865 E4.18974
G1 X60.559 Y86.291 E.02092
G1 X127.677 Y153.409 E4.17719
G1 X127.265 Y153.634 E.02065
G1 X60.349 Y86.717 E4.16463
G1 X60.139 Y87.144 E.02092
G1 X126.853 Y153.858 E4.15207
G1 X126.441 Y154.083 E.02065
G1 X59.928 Y87.57 E4.13951
G1 X59.718 Y87.996 E.02092
G1 X126.029 Y154.307 E4.12696
G1 X125.614 Y154.528 E.0207
G1 X59.508 Y88.422 E4.1142
G1 X59.298 Y88.849 E.02092
G1 X125.166 Y154.717 E4.09942
G1 X124.718 Y154.906 E.02138
G1 X59.088 Y89.275 E4.08464
G1 X58.877 Y89.701 E.02092
G1 X124.271 Y155.095 E4.06985
G1 X123.823 Y155.283 E.02138
G1 X58.667 Y90.127 E4.05507
G1 X58.457 Y90.554 E.02092
G1 X123.375 Y155.472 E4.04029
G1 X122.928 Y155.661 E.02138
G1 X58.247 Y90.98 E4.02551
G1 X58.178 Y91.12 E.00685
G1 X58.069 Y91.439 E.01485
G1 X122.48 Y155.85 E4.00868
G1 X122.032 Y156.038 E.02138
G1 X57.908 Y91.914 E3.99085
G1 X57.747 Y92.389 E.02208
G1 X121.584 Y156.227 E3.97302
G1 X121.137 Y156.416 E.02138
G1 X57.586 Y92.865 E3.9552
G1 X57.424 Y93.34 E.02208
G1 X120.652 Y156.567 E3.93505
G1 X120.165 Y156.717 E.0224
G1 X57.263 Y93.815 E3.91482
G1 X57.102 Y94.29 E.02208
G1 X119.679 Y156.867 E3.89459
G1 X119.193 Y157.017 E.0224
G1 X56.94 Y94.765 E3.87435
G1 X56.779 Y95.241 E.02208
G1 X118.706 Y157.168 E3.85412
G1 X118.22 Y157.318 E.0224
G1 X56.618 Y95.716 E3.83389
G1 X56.457 Y96.191 E.02208
G1 X117.733 Y157.468 E3.81366
G1 X117.247 Y157.618 E.0224
G1 X56.295 Y96.666 E3.79342
G1 X56.134 Y97.141 E.02208
G1 X116.761 Y157.768 E3.77319
G1 X116.261 Y157.905 E.02278
G1 X56.018 Y97.662 E3.74934
G1 X55.912 Y98.193 E.02382
G1 X115.732 Y158.012 E3.72296
G1 X115.203 Y158.119 E.02377
G1 X55.807 Y98.723 E3.69658
G1 X55.701 Y99.254 E.02382
G1 X114.673 Y158.226 E3.67021
G1 X114.144 Y158.333 E.02377
G1 X55.596 Y99.785 E3.64383
G1 X55.49 Y100.316 E.02382
G1 X113.614 Y158.44 E3.61745
G1 X113.085 Y158.547 E.02377
G1 X55.384 Y100.847 E3.59107
G1 X55.279 Y101.378 E.02382
G1 X112.555 Y158.654 E3.56469
G1 X112.026 Y158.761 E.02377
G1 X55.173 Y101.909 E3.53831
G1 X55.068 Y102.44 E.02382
G1 X111.487 Y158.859 E3.51136
G1 X110.909 Y158.917 E.02559
G1 X54.962 Y102.97 E3.48193
G1 X54.856 Y103.501 E.02382
G1 X110.33 Y158.975 E3.45249
G1 X109.752 Y159.033 E.02559
G1 X54.81 Y104.091 E3.41939
G1 X54.771 Y104.688 E.02634
G1 X109.173 Y159.091 E3.38582
G1 X108.595 Y159.149 E.02559
G1 X54.731 Y105.286 E3.35226
G1 X54.692 Y105.883 E.02634
G1 X108.016 Y159.207 E3.31869
G1 X107.438 Y159.265 E.02559
G1 X54.653 Y106.48 E3.28512
G1 X54.614 Y107.078 E.02634
G1 X106.859 Y159.323 E3.25156
G1 X106.239 Y159.339 E.02732
G1 X54.575 Y107.675 E3.21537
G1 X54.536 Y108.272 E.02634
G1 X105.602 Y159.339 E3.1782
G1 X104.966 Y159.339 E.02801
G1 X54.496 Y108.869 E3.14103
G1 X54.457 Y109.467 E.02634
G1 X104.329 Y159.339 E3.10385
G1 X103.693 Y159.339 E.02801
G1 X54.427 Y110.073 E3.06612
G1 X54.472 Y110.754 E.03004
G1 X103.056 Y159.339 E3.02373
G1 X102.42 Y159.339 E.02801
G1 X54.516 Y111.435 E2.98134
G1 X54.561 Y112.116 E.03004
G1 X101.783 Y159.339 E2.93895
G1 X101.076 Y159.268 E.03127
G1 X54.606 Y112.798 E2.89216
G1 X54.65 Y113.479 E.03004
G1 X100.369 Y159.197 E2.84536
G1 X99.662 Y159.126 E.03128
G1 X54.695 Y114.16 E2.79856
G1 X54.74 Y114.841 E.03004
G1 X98.954 Y159.055 E2.75176
G1 X98.247 Y158.985 E.03128
G1 X54.784 Y115.522 E2.70496
G1 X54.829 Y116.203 E.03004
G1 X97.556 Y158.93 E2.65919
G1 X97.307 Y158.914 E.01098
G1 X96.826 Y158.836 E.02148
G1 X54.948 Y116.958 E2.60632
G1 X55.106 Y117.753 E.03565
G1 X96.028 Y158.675 E2.54683
G1 X95.23 Y158.513 E.03582
G1 X55.264 Y118.547 E2.48735
G1 X55.422 Y119.342 E.03565
G1 X94.432 Y158.352 E2.42786
G1 X93.634 Y158.191 E.03582
G1 X55.58 Y120.136 E2.36837
G1 X55.738 Y120.931 E.03565
